public/login.svg

<!DOCTYPE svg PUBLIC "-//W3C//DTD SVG 1.1//EN" "http://www.w3.org/Graphics/SVG/1.1/DTD/svg11.dtd">
<!-- Uploaded to: SVG Repo, www.svgrepo.com, Transformed by: SVG Repo Mixer Tools -->
<svg width="64px" height="64px" viewBox="0 0 24 24" fill="none" xmlns="http://www.w3.org/2000/svg">
<g id="SVGRepo_bgCarrier" stroke-width="0"/>
<g id="SVGRepo_tracerCarrier" stroke-linecap="round" stroke-linejoin="round"/>
<g id="SVGRepo_iconCarrier"> <path fill-rule="evenodd" clip-rule="evenodd" d="M8 6C8 3.79086 9.79086 2 12 2H17.5C19.9853 2 22 4.01472 22 6.5V17.5C22 19.9853 19.9853 22 17.5 22H12C9.79086 22 8 20.2091 8 18V17C8 16.4477 8.44772 16 9 16C9.55228 16 10 16.4477 10 17V18C10 19.1046 10.8954 20 12 20H17.5C18.8807 20 20 18.8807 20 17.5V6.5C20 5.11929 18.8807 4 17.5 4H12C10.8954 4 10 4.89543 10 6V7C10 7.55228 9.55228 8 9 8C8.44772 8 8 7.55228 8 7V6ZM12.2929 8.29289C12.6834 7.90237 13.3166 7.90237 13.7071 8.29289L16.7071 11.2929C17.0976 11.6834 17.0976 12.3166 16.7071 12.7071L13.7071 15.7071C13.3166 16.0976 12.6834 16.0976 12.2929 15.7071C11.9024 15.3166 11.9024 14.6834 12.2929 14.2929L13.5858 13L5 13C4.44772 13 4 12.5523 4 12C4 11.4477 4.44772 11 5 11L13.5858 11L12.2929 9.70711C11.9024 9.31658 11.9024 8.68342 12.2929 8.29289Z" fill="#000000"/> </g>
</svg>

<svg xmlns="http://www.w3.org/2000/svg" width="64" height="64" fill="none" viewBox="0 0 24 24"><path fill="#000" fill-rule="evenodd" d="M8 6a4 4 0 0 1 4-4h5.5A4.5 4.5 0 0 1 22 6.5v11a4.5 4.5 0 0 1-4.5 4.5H12a4 4 0 0 1-4-4v-1a1 1 0 1 1 2 0v1a2 2 0 0 0 2 2h5.5a2.5 2.5 0 0 0 2.5-2.5v-11A2.5 2.5 0 0 0 17.5 4H12a2 2 0 0 0-2 2v1a1 1 0 0 1-2 0zm4.293 2.293a1 1 0 0 1 1.414 0l3 3a1 1 0 0 1 0 1.414l-3 3a1 1 0 0 1-1.414-1.414L13.586 13H5a1 1 0 1 1 0-2h8.586l-1.293-1.293a1 1 0 0 1 0-1.414" clip-rule="evenodd"/></svg>
